public/logo.svg

<?xml version="1.0" encoding="UTF-8" standalone="no"?>
<svg
   width="443.58499"
   zoomAndPan="magnify"
   viewBox="-5 -12 332.68875 166.00425"
   height="221.339"
   preserveAspectRatio="xMidYMid"
   version="1.0"
   id="svg30"
   sodipodi:docname="logo.svg"
   inkscape:version="1.4 (e7c3feb100, 2024-10-09)"
   xmlns:inkscape="http://www.inkscape.org/namespaces/inkscape"
   xmlns:sodipodi="http://sodipodi.sourceforge.net/DTD/sodipodi-0.dtd"
   xmlns="http://www.w3.org/2000/svg"
   xmlns:svg="http://www.w3.org/2000/svg">
  <sodipodi:namedview
     id="namedview30"
     pagecolor="#ffffff"
     bordercolor="#000000"
     borderopacity="0.25"
     inkscape:showpageshadow="false"
     inkscape:pageopacity="0.0"
     inkscape:pagecheckerboard="0"
     inkscape:deskcolor="#d1d1d1"
     showborder="false"
     borderlayer="false"
     inkscape:zoom="1.104"
     inkscape:cx="217.3913"
     inkscape:cy="95.108696"
     inkscape:window-width="1366"
     inkscape:window-height="761"
     inkscape:window-x="0"
     inkscape:window-y="32"
     inkscape:window-maximized="1"
     inkscape:current-layer="svg30" />
  <defs
     id="defs4">
    <g
       id="g1" />
    <clipPath
       id="8357f6b319">
      <path
         d="M 25.105469,116 H 114 V 259.88281 H 25.105469 Z m 0,0"
         clip-rule="nonzero"
         id="path1" />
    </clipPath>
    <clipPath
       id="31b1b21ccc">
      <path
         d="m 288,141 h 13 v 37 h -13 z m 0,0"
         clip-rule="nonzero"
         id="path2" />
    </clipPath>
    <clipPath
       id="e106cd66c3">
      <path
         d="m 287.51953,142.03125 11.99219,-0.42969 1.2539,35.23047 -11.99218,0.42578 z m 0,0"
         clip-rule="nonzero"
         id="path3" />
    </clipPath>
    <clipPath
       id="475d7f32c5">
      <path
         d="m 287.51953,142.03125 11.99219,-0.42969 1.2539,35.23047 -11.99218,0.42578 z m 0,0"
         clip-rule="nonzero"
         id="path4" />
    </clipPath>
  </defs>
  <g
     clip-path="url(#8357f6b319)"
     id="g5"
     transform="translate(-25.280795,-116.35487)">
    <path
       fill="#211f60"
       d="M 69.742188,259.85937 C 66.457031,243.73047 60.664062,230.3125 53.648438,217.875 48.445312,208.64844 42.417969,200.13281 36.839844,191.1875 c -1.859375,-2.98828 -3.46875,-6.14453 -5.257813,-9.24219 -3.578125,-6.19922 -6.476562,-13.38281 -6.292969,-22.70312 0.179688,-9.10938 2.8125,-16.41407 6.613282,-22.38672 6.246094,-9.82422 16.710937,-17.87891 30.75,-19.99609 11.480468,-1.73047 22.242187,1.19531 29.875,5.65625 6.234375,3.64843 11.066406,8.51953 14.738286,14.26171 3.82812,5.99219 6.46875,13.07032 6.6914,22.30469 0.11328,4.73047 -0.66406,9.11328 -1.7539,12.74609 -1.10547,3.67969 -2.87891,6.75391 -4.46094,10.03907 -3.08594,6.41015 -6.95313,12.28515 -10.83594,18.16015 -11.558594,17.50782 -22.414062,35.36328 -27.164062,59.83203 z m 0,0"
       fill-opacity="1"
       fill-rule="evenodd"
       id="path5" />
  </g>
  <path
     fill="#ffffff"
     d="m 59.879361,42.785755 c 0,1.01954 -0.101562,2.03125 -0.300781,3.03125 -0.199219,1 -0.492187,1.97266 -0.882813,2.91407 -0.390624,0.9414 -0.867187,1.83593 -1.4375,2.68359 -0.566406,0.85156 -1.207031,1.63672 -1.929687,2.35547 -0.722656,0.72266 -1.507813,1.36719 -2.355469,1.93359 -0.847656,0.56641 -1.742187,1.04297 -2.683594,1.4336 -0.945312,0.39062 -1.914062,0.6875 -2.914062,0.88672 -1.003906,0.19921 -2.011719,0.29687 -3.03125,0.29687 -1.019531,0 -2.03125,-0.0977 -3.03125,-0.29687 -1,-0.19922 -1.972656,-0.4961 -2.914062,-0.88672 -0.945313,-0.39063 -1.839844,-0.86719 -2.6875,-1.4336 -0.847657,-0.5664 -1.632813,-1.21093 -2.351563,-1.93359 -0.722656,-0.71875 -1.367187,-1.50391 -1.933594,-2.35547 -0.566406,-0.84766 -1.046875,-1.74219 -1.4375,-2.68359 -0.390625,-0.94141 -0.683593,-1.91407 -0.882812,-2.91407 -0.199219,-1 -0.296875,-2.01171 -0.296875,-3.03125 0,-1.01953 0.09766,-2.03125 0.296875,-3.03125 0.199219,-1 0.492187,-1.97265 0.882812,-2.91406 0.390625,-0.9414 0.871094,-1.83594 1.4375,-2.6875 0.566407,-0.84765 1.210938,-1.63281 1.933594,-2.35156 0.71875,-0.72266 1.503906,-1.36719 2.351563,-1.93359 0.847656,-0.56641 1.742187,-1.04297 2.6875,-1.4336 0.941406,-0.39062 1.914062,-0.6875 2.914062,-0.88672 1,-0.19922 2.011719,-0.29687 3.03125,-0.29687 1.019531,0 2.027344,0.0977 3.03125,0.29687 1,0.19922 1.96875,0.4961 2.914062,0.88672 0.941407,0.39063 1.835938,0.86719 2.683594,1.4336 0.847656,0.5664 1.632813,1.21093 2.355469,1.93359 0.722656,0.71875 1.363281,1.50391 1.929687,2.35156 0.570313,0.85156 1.046876,1.7461 1.4375,2.6875 0.390626,0.94141 0.683594,1.91406 0.882813,2.91406 0.199219,1 0.300781,2.01172 0.300781,3.03125 z m 0,0"
     fill-opacity="1"
     fill-rule="nonzero"
     id="path6" />
  <g
     fill="#ffbd59"
     fill-opacity="1"
     id="g9"
     transform="translate(-25.280795,-116.35487)">
    <g
       transform="translate(40.850899,184.89452)"
       id="g8">
      <g
         id="g7">
        <path
           d="m 28.875,0.515625 c -4.835938,0 -9.265625,-1.125 -13.296875,-3.375 C 11.546875,-5.109375 8.34375,-8.25 5.96875,-12.28125 3.601562,-16.3125 2.421875,-20.84375 2.421875,-25.875 c 0,-5.03125 1.179687,-9.546875 3.546875,-13.546875 2.375,-4.007813 5.578125,-7.132813 9.609375,-9.375 4.03125,-2.25 8.460937,-3.375 13.296875,-3.375 4.832031,0 9.265625,1.125 13.296875,3.375 4.03125,2.242187 7.207031,5.367187 9.53125,9.375 2.320313,4 3.484375,8.515625 3.484375,13.546875 0,5.03125 -1.179688,9.5625 -3.53125,13.59375 -2.34375,4.03125 -5.523438,7.171875 -9.53125,9.421875 -4,2.25 -8.417969,3.375 -13.25,3.375 z m 0,-11.4375 c 4.101562,0 7.390625,-1.363281 9.859375,-4.09375 2.46875,-2.738281 3.703125,-6.359375 3.703125,-10.859375 0,-4.539062 -1.234375,-8.164062 -3.703125,-10.875 -2.46875,-2.707031 -5.757813,-4.0625 -9.859375,-4.0625 -4.15625,0 -7.46875,1.34375 -9.9375,4.03125 -2.460938,2.6875 -3.6875,6.324219 -3.6875,10.90625 0,4.554688 1.226562,8.183594 3.6875,10.890625 2.46875,2.710937 5.78125,4.0625 9.9375,4.0625 z m 0,0"
           id="path7" />
      </g>
    </g>
  </g>
  <g
     fill="#ffbd59"
     fill-opacity="1"
     id="g12"
     transform="translate(-25.280795,-116.35487)">
    <g
       transform="translate(98.446938,184.89452)"
       id="g11">
      <g
         id="g10">
        <path
           d="M 44.921875,-40.890625 V 0 H 32.390625 V -5.5625 C 31.117188,-3.757812 29.394531,-2.304688 27.21875,-1.203125 25.050781,-0.109375 22.644531,0.4375 20,0.4375 c -3.125,0 -5.886719,-0.691406 -8.28125,-2.078125 C 9.332031,-3.035156 7.476562,-5.050781 6.15625,-7.6875 4.832031,-10.332031 4.171875,-13.4375 4.171875,-17 v -23.890625 h 12.46875 V -18.6875 c 0,2.742188 0.707031,4.867188 2.125,6.375 1.414063,1.511719 3.316406,2.265625 5.703125,2.265625 2.445312,0 4.378906,-0.753906 5.796875,-2.265625 1.414063,-1.507812 2.125,-3.632812 2.125,-6.375 v -22.203125 z m 0,0"
           id="path9" />
      </g>
    </g>
  </g>
  <g
     fill="#ffbd59"
     fill-opacity="1"
     id="g15"
     transform="translate(-25.280795,-116.35487)">
    <g
       transform="translate(147.83591,184.89452)"
       id="g14">
      <g
         id="g13">
        <path
           d="M 27.328125,-10.625 V 0 h -6.375 C 16.410156,0 12.867188,-1.109375 10.328125,-3.328125 7.785156,-5.554688 6.515625,-9.1875 6.515625,-14.21875 V -30.484375 H 1.53125 v -10.40625 h 4.984375 v -9.96875 h 12.53125 v 9.96875 h 8.21875 v 10.40625 h -8.21875 V -14.0625 c 0,1.21875 0.289063,2.101562 0.875,2.640625 0.59375,0.53125 1.570313,0.796875 2.9375,0.796875 z m 0,0"
           id="path12" />
      </g>
    </g>
  </g>
  <g
     fill="#ffbd59"
     fill-opacity="1"
     id="g18"
     transform="translate(-25.280795,-116.35487)">
    <g
       transform="translate(177.58655,184.89452)"
       id="g17">
      <g
         id="g16">
        <path
           d="m 2.046875,-20.515625 c 0,-4.207031 0.789063,-7.894531 2.375,-11.0625 1.59375,-3.175781 3.753906,-5.617187 6.484375,-7.328125 2.738281,-1.71875 5.796875,-2.578125 9.171875,-2.578125 2.882813,0 5.410156,0.589844 7.578125,1.765625 2.175781,1.179688 3.851562,2.714844 5.03125,4.609375 v -5.78125 H 45.21875 V 0 H 32.6875 v -5.796875 c -1.230469,1.90625 -2.933594,3.449219 -5.109375,4.625 C 25.410156,0.00390625 22.882812,0.59375 20,0.59375 16.675781,0.59375 13.644531,-0.269531 10.90625,-2 8.175781,-3.738281 6.015625,-6.207031 4.421875,-9.40625 c -1.585937,-3.207031 -2.375,-6.910156 -2.375,-11.109375 z m 30.640625,0.0625 c 0,-3.125 -0.871094,-5.585937 -2.609375,-7.390625 -1.730469,-1.8125 -3.839844,-2.71875 -6.328125,-2.71875 -2.5,0 -4.621094,0.898438 -6.359375,2.6875 -1.730469,1.78125 -2.59375,4.234375 -2.59375,7.359375 0,3.125 0.863281,5.605469 2.59375,7.4375 1.738281,1.835937 3.859375,2.75 6.359375,2.75 2.488281,0 4.597656,-0.898437 6.328125,-2.703125 1.738281,-1.8125 2.609375,-4.285156 2.609375,-7.421875 z m 0,0"
           id="path15" />
      </g>
    </g>
  </g>
  <g
     fill="#211f60"
     fill-opacity="1"
     id="g21"
     transform="translate(-25.280795,-116.35487)">
    <g
       transform="translate(227.34307,184.89452)"
       id="g20">
      <g
         id="g19">
        <path
           d="m 38.6875,-35.171875 c -0.929688,-1.707031 -2.261719,-3.015625 -4,-3.921875 -1.730469,-0.90625 -3.765625,-1.359375 -6.109375,-1.359375 -4.054687,0 -7.304687,1.335937 -9.75,4 -2.4375,2.65625 -3.65625,6.210937 -3.65625,10.65625 0,4.742187 1.28125,8.445313 3.84375,11.109375 2.5625,2.65625 6.09375,3.984375 10.59375,3.984375 3.070313,0 5.671875,-0.78125 7.796875,-2.34375 2.125,-1.5625 3.675781,-3.804687 4.65625,-6.734375 H 26.15625 v -9.234375 H 53.421875 V -17.375 c -0.929687,3.136719 -2.507813,6.046875 -4.734375,8.734375 -2.21875,2.6875 -5.039062,4.859375 -8.453125,6.515625 C 36.816406,-0.46875 32.957031,0.359375 28.65625,0.359375 23.570312,0.359375 19.039062,-0.75 15.0625,-2.96875 11.082031,-5.1875 7.976562,-8.273438 5.75,-12.234375 c -2.21875,-3.957031 -3.328125,-8.476563 -3.328125,-13.5625 0,-5.082031 1.109375,-9.613281 3.328125,-13.59375 2.226562,-3.976563 5.316406,-7.078125 9.265625,-9.296875 3.957031,-2.226562 8.476563,-3.34375 13.5625,-3.34375 6.15625,0 11.34375,1.492188 15.5625,4.46875 4.226563,2.980469 7.03125,7.109375 8.40625,12.390625 z m 0,0"
           id="path18" />
      </g>
    </g>
  </g>
  <g
     fill="#211f60"
     fill-opacity="1"
     id="g24"
     transform="translate(-25.280795,-116.35487)">
    <g
       transform="translate(283.18047,184.89452)"
       id="g23">
      <g
         id="g22">
        <path
           d="M 17.078125,-51.4375 V 0 H 4.546875 v -51.4375 z m 0,0"
           id="path21" />
      </g>
    </g>
  </g>
  <g
     fill="#211f60"
     fill-opacity="1"
     id="g27"
     transform="translate(-25.280795,-116.35487)">
    <g
       transform="translate(304.7973,184.89452)"
       id="g26">
      <g
         id="g25">
        <path
           d="m 23.15625,0.515625 c -3.761719,0 -7.132812,-0.609375 -10.109375,-1.828125 -2.980469,-1.226562 -5.367187,-3.035156 -7.15625,-5.421875 -1.78125,-2.394531 -2.71875,-5.28125 -2.8125,-8.65625 h 13.34375 c 0.1875,1.90625 0.84375,3.359375 1.96875,4.359375 1.125,1 2.59375,1.5 4.40625,1.5 1.851563,0 3.316406,-0.425781 4.390625,-1.28125 1.070312,-0.851562 1.609375,-2.035156 1.609375,-3.546875 0,-1.269531 -0.429687,-2.320313 -1.28125,-3.15625 -0.855469,-0.832031 -1.90625,-1.515625 -3.15625,-2.046875 -1.242187,-0.539062 -3.011719,-1.148438 -5.3125,-1.828125 -3.324219,-1.03125 -6.039063,-2.054687 -8.140625,-3.078125 C 8.8125,-25.5 7.003906,-27.015625 5.484375,-29.015625 c -1.511719,-2.007813 -2.265625,-4.625 -2.265625,-7.84375 0,-4.789063 1.734375,-8.539063 5.203125,-11.25 3.46875,-2.707031 7.988281,-4.0625 13.5625,-4.0625 5.664063,0 10.234375,1.355469 13.703125,4.0625 3.46875,2.710937 5.320312,6.484375 5.5625,11.328125 H 27.703125 c -0.105469,-1.664062 -0.71875,-2.972656 -1.84375,-3.921875 -1.117187,-0.957031 -2.554687,-1.4375 -4.3125,-1.4375 -1.523437,0 -2.746094,0.40625 -3.671875,1.21875 -0.929688,0.804687 -1.390625,1.960937 -1.390625,3.46875 0,1.667969 0.78125,2.964844 2.34375,3.890625 1.5625,0.929688 4.003906,1.929688 7.328125,3 3.320312,1.125 6.019531,2.203125 8.09375,3.234375 2.082031,1.023437 3.878906,2.511719 5.390625,4.46875 1.519531,1.949219 2.28125,4.464844 2.28125,7.546875 0,2.929688 -0.746094,5.589844 -2.234375,7.984375 -1.492188,2.398437 -3.652344,4.304687 -6.484375,5.71875 -2.835937,1.417969 -6.183594,2.125 -10.046875,2.125 z m 0,0"
           id="path24" />
      </g>
    </g>
  </g>
  <g
     clip-path="url(#31b1b21ccc)"
     id="g30"
     transform="translate(-25.280795,-116.35487)">
    <g
       clip-path="url(#e106cd66c3)"
       id="g29">
      <g
         clip-path="url(#475d7f32c5)"
         id="g28">
        <path
           fill="#ffbd59"
           d="m 288.24219,162.26953 c 0,0 3.58203,-8.03516 9.15625,-20.53516 -1.08203,5.05469 -2.16407,10.10938 -3.24219,15.16407 2.03516,-0.0703 4.06641,-0.14453 6.10156,-0.21485 -4.79297,10.64453 -9.16797,20.35938 -9.16797,20.36328 0,-0.004 3.33594,-14.91406 3.33594,-14.91406 0,0.004 -6.18359,0.13672 -6.18359,0.13672 z m 0,0"
           fill-opacity="1"
           fill-rule="nonzero"
           id="path27" />
      </g>
    </g>
  </g>
</svg>

<svg xmlns="http://www.w3.org/2000/svg" zoomAndPan="magnify" preserveAspectRatio="xMidYMid meet" version="1.0" viewBox="43.27 132.72 303.45 52.77">
  <defs>
    <g/>
    <clipPath id="31b1b21ccc">
      <path d="M 288 141 L 301 141 L 301 178 L 288 178 Z M 288 141 " clip-rule="nonzero"/>
    </clipPath>
    <clipPath id="e106cd66c3">
      <path d="M 287.519531 142.03125 L 299.511719 141.601562 L 300.765625 176.832031 L 288.773438 177.257812 Z M 287.519531 142.03125 " clip-rule="nonzero"/>
    </clipPath>
    <clipPath id="475d7f32c5">
      <path d="M 287.519531 142.03125 L 299.511719 141.601562 L 300.765625 176.832031 L 288.773438 177.257812 Z M 287.519531 142.03125 " clip-rule="nonzero"/>
    </clipPath>
  </defs>
  <path fill="#ffffff" d="M 85.160156 159.140625 C 85.160156 160.160156 85.058594 161.171875 84.859375 162.171875 C 84.660156 163.171875 84.367188 164.144531 83.976562 165.085938 C 83.585938 166.027344 83.109375 166.921875 82.539062 167.769531 C 81.972656 168.621094 81.332031 169.40625 80.609375 170.125 C 79.886719 170.847656 79.101562 171.492188 78.253906 172.058594 C 77.40625 172.625 76.511719 173.101562 75.570312 173.492188 C 74.625 173.882812 73.65625 174.179688 72.65625 174.378906 C 71.652344 174.578125 70.644531 174.675781 69.625 174.675781 C 68.605469 174.675781 67.59375 174.578125 66.59375 174.378906 C 65.59375 174.179688 64.621094 173.882812 63.679688 173.492188 C 62.734375 173.101562 61.839844 172.625 60.992188 172.058594 C 60.144531 171.492188 59.359375 170.847656 58.640625 170.125 C 57.917969 169.40625 57.273438 168.621094 56.707031 167.769531 C 56.140625 166.921875 55.660156 166.027344 55.269531 165.085938 C 54.878906 164.144531 54.585938 163.171875 54.386719 162.171875 C 54.1875 161.171875 54.089844 160.160156 54.089844 159.140625 C 54.089844 158.121094 54.1875 157.109375 54.386719 156.109375 C 54.585938 155.109375 54.878906 154.136719 55.269531 153.195312 C 55.660156 152.253906 56.140625 151.359375 56.707031 150.507812 C 57.273438 149.660156 57.917969 148.875 58.640625 148.15625 C 59.359375 147.433594 60.144531 146.789062 60.992188 146.222656 C 61.839844 145.65625 62.734375 145.179688 63.679688 144.789062 C 64.621094 144.398438 65.59375 144.101562 66.59375 143.902344 C 67.59375 143.703125 68.605469 143.605469 69.625 143.605469 C 70.644531 143.605469 71.652344 143.703125 72.65625 143.902344 C 73.65625 144.101562 74.625 144.398438 75.570312 144.789062 C 76.511719 145.179688 77.40625 145.65625 78.253906 146.222656 C 79.101562 146.789062 79.886719 147.433594 80.609375 148.15625 C 81.332031 148.875 81.972656 149.660156 82.539062 150.507812 C 83.109375 151.359375 83.585938 152.253906 83.976562 153.195312 C 84.367188 154.136719 84.660156 155.109375 84.859375 156.109375 C 85.058594 157.109375 85.160156 158.121094 85.160156 159.140625 Z M 85.160156 159.140625 " fill-opacity="1" fill-rule="nonzero"/>
  <g fill="#ffbd59" fill-opacity="1">
    <g transform="translate(40.850899, 184.894521)">
      <g>
        <path d="M 28.875 0.515625 C 24.039062 0.515625 19.609375 -0.609375 15.578125 -2.859375 C 11.546875 -5.109375 8.34375 -8.25 5.96875 -12.28125 C 3.601562 -16.3125 2.421875 -20.84375 2.421875 -25.875 C 2.421875 -30.90625 3.601562 -35.421875 5.96875 -39.421875 C 8.34375 -43.429688 11.546875 -46.554688 15.578125 -48.796875 C 19.609375 -51.046875 24.039062 -52.171875 28.875 -52.171875 C 33.707031 -52.171875 38.140625 -51.046875 42.171875 -48.796875 C 46.203125 -46.554688 49.378906 -43.429688 51.703125 -39.421875 C 54.023438 -35.421875 55.1875 -30.90625 55.1875 -25.875 C 55.1875 -20.84375 54.007812 -16.3125 51.65625 -12.28125 C 49.3125 -8.25 46.132812 -5.109375 42.125 -2.859375 C 38.125 -0.609375 33.707031 0.515625 28.875 0.515625 Z M 28.875 -10.921875 C 32.976562 -10.921875 36.265625 -12.285156 38.734375 -15.015625 C 41.203125 -17.753906 42.4375 -21.375 42.4375 -25.875 C 42.4375 -30.414062 41.203125 -34.039062 38.734375 -36.75 C 36.265625 -39.457031 32.976562 -40.8125 28.875 -40.8125 C 24.71875 -40.8125 21.40625 -39.46875 18.9375 -36.78125 C 16.476562 -34.09375 15.25 -30.457031 15.25 -25.875 C 15.25 -21.320312 16.476562 -17.691406 18.9375 -14.984375 C 21.40625 -12.273438 24.71875 -10.921875 28.875 -10.921875 Z M 28.875 -10.921875 "/>
      </g>
    </g>
  </g>
  <g fill="#ffbd59" fill-opacity="1">
    <g transform="translate(98.446938, 184.894521)">
      <g>
        <path d="M 44.921875 -40.890625 L 44.921875 0 L 32.390625 0 L 32.390625 -5.5625 C 31.117188 -3.757812 29.394531 -2.304688 27.21875 -1.203125 C 25.050781 -0.109375 22.644531 0.4375 20 0.4375 C 16.875 0.4375 14.113281 -0.253906 11.71875 -1.640625 C 9.332031 -3.035156 7.476562 -5.050781 6.15625 -7.6875 C 4.832031 -10.332031 4.171875 -13.4375 4.171875 -17 L 4.171875 -40.890625 L 16.640625 -40.890625 L 16.640625 -18.6875 C 16.640625 -15.945312 17.347656 -13.820312 18.765625 -12.3125 C 20.179688 -10.800781 22.082031 -10.046875 24.46875 -10.046875 C 26.914062 -10.046875 28.847656 -10.800781 30.265625 -12.3125 C 31.679688 -13.820312 32.390625 -15.945312 32.390625 -18.6875 L 32.390625 -40.890625 Z M 44.921875 -40.890625 "/>
      </g>
    </g>
  </g>
  <g fill="#ffbd59" fill-opacity="1">
    <g transform="translate(147.835915, 184.894521)">
      <g>
        <path d="M 27.328125 -10.625 L 27.328125 0 L 20.953125 0 C 16.410156 0 12.867188 -1.109375 10.328125 -3.328125 C 7.785156 -5.554688 6.515625 -9.1875 6.515625 -14.21875 L 6.515625 -30.484375 L 1.53125 -30.484375 L 1.53125 -40.890625 L 6.515625 -40.890625 L 6.515625 -50.859375 L 19.046875 -50.859375 L 19.046875 -40.890625 L 27.265625 -40.890625 L 27.265625 -30.484375 L 19.046875 -30.484375 L 19.046875 -14.0625 C 19.046875 -12.84375 19.335938 -11.960938 19.921875 -11.421875 C 20.515625 -10.890625 21.492188 -10.625 22.859375 -10.625 Z M 27.328125 -10.625 "/>
      </g>
    </g>
  </g>
  <g fill="#ffbd59" fill-opacity="1">
    <g transform="translate(177.586546, 184.894521)">
      <g>
        <path d="M 2.046875 -20.515625 C 2.046875 -24.722656 2.835938 -28.410156 4.421875 -31.578125 C 6.015625 -34.753906 8.175781 -37.195312 10.90625 -38.90625 C 13.644531 -40.625 16.703125 -41.484375 20.078125 -41.484375 C 22.960938 -41.484375 25.488281 -40.894531 27.65625 -39.71875 C 29.832031 -38.539062 31.507812 -37.003906 32.6875 -35.109375 L 32.6875 -40.890625 L 45.21875 -40.890625 L 45.21875 0 L 32.6875 0 L 32.6875 -5.796875 C 31.457031 -3.890625 29.753906 -2.347656 27.578125 -1.171875 C 25.410156 0.00390625 22.882812 0.59375 20 0.59375 C 16.675781 0.59375 13.644531 -0.269531 10.90625 -2 C 8.175781 -3.738281 6.015625 -6.207031 4.421875 -9.40625 C 2.835938 -12.613281 2.046875 -16.316406 2.046875 -20.515625 Z M 32.6875 -20.453125 C 32.6875 -23.578125 31.816406 -26.039062 30.078125 -27.84375 C 28.347656 -29.65625 26.238281 -30.5625 23.75 -30.5625 C 21.25 -30.5625 19.128906 -29.664062 17.390625 -27.875 C 15.660156 -26.09375 14.796875 -23.640625 14.796875 -20.515625 C 14.796875 -17.390625 15.660156 -14.910156 17.390625 -13.078125 C 19.128906 -11.242188 21.25 -10.328125 23.75 -10.328125 C 26.238281 -10.328125 28.347656 -11.226562 30.078125 -13.03125 C 31.816406 -14.84375 32.6875 -17.316406 32.6875 -20.453125 Z M 32.6875 -20.453125 "/>
      </g>
    </g>
  </g>
  <g fill="#211f60" fill-opacity="1">
    <g transform="translate(227.343074, 184.894521)">
      <g>
        <path d="M 38.6875 -35.171875 C 37.757812 -36.878906 36.425781 -38.1875 34.6875 -39.09375 C 32.957031 -40 30.921875 -40.453125 28.578125 -40.453125 C 24.523438 -40.453125 21.273438 -39.117188 18.828125 -36.453125 C 16.390625 -33.796875 15.171875 -30.242188 15.171875 -25.796875 C 15.171875 -21.054688 16.453125 -17.351562 19.015625 -14.6875 C 21.578125 -12.03125 25.109375 -10.703125 29.609375 -10.703125 C 32.679688 -10.703125 35.28125 -11.484375 37.40625 -13.046875 C 39.53125 -14.609375 41.082031 -16.851562 42.0625 -19.78125 L 26.15625 -19.78125 L 26.15625 -29.015625 L 53.421875 -29.015625 L 53.421875 -17.375 C 52.492188 -14.238281 50.914062 -11.328125 48.6875 -8.640625 C 46.46875 -5.953125 43.648438 -3.78125 40.234375 -2.125 C 36.816406 -0.46875 32.957031 0.359375 28.65625 0.359375 C 23.570312 0.359375 19.039062 -0.75 15.0625 -2.96875 C 11.082031 -5.1875 7.976562 -8.273438 5.75 -12.234375 C 3.53125 -16.191406 2.421875 -20.710938 2.421875 -25.796875 C 2.421875 -30.878906 3.53125 -35.410156 5.75 -39.390625 C 7.976562 -43.367188 11.066406 -46.46875 15.015625 -48.6875 C 18.972656 -50.914062 23.492188 -52.03125 28.578125 -52.03125 C 34.734375 -52.03125 39.921875 -50.539062 44.140625 -47.5625 C 48.367188 -44.582031 51.171875 -40.453125 52.546875 -35.171875 Z M 38.6875 -35.171875 "/>
      </g>
    </g>
  </g>
  <g fill="#211f60" fill-opacity="1">
    <g transform="translate(283.180465, 184.894521)">
      <g>
        <path d="M 17.078125 -51.4375 L 17.078125 0 L 4.546875 0 L 4.546875 -51.4375 Z M 17.078125 -51.4375 "/>
      </g>
    </g>
  </g>
  <g fill="#211f60" fill-opacity="1">
    <g transform="translate(304.797301, 184.894521)">
      <g>
        <path d="M 23.15625 0.515625 C 19.394531 0.515625 16.023438 -0.09375 13.046875 -1.3125 C 10.066406 -2.539062 7.679688 -4.347656 5.890625 -6.734375 C 4.109375 -9.128906 3.171875 -12.015625 3.078125 -15.390625 L 16.421875 -15.390625 C 16.609375 -13.484375 17.265625 -12.03125 18.390625 -11.03125 C 19.515625 -10.03125 20.984375 -9.53125 22.796875 -9.53125 C 24.648438 -9.53125 26.113281 -9.957031 27.1875 -10.8125 C 28.257812 -11.664062 28.796875 -12.847656 28.796875 -14.359375 C 28.796875 -15.628906 28.367188 -16.679688 27.515625 -17.515625 C 26.660156 -18.347656 25.609375 -19.03125 24.359375 -19.5625 C 23.117188 -20.101562 21.347656 -20.710938 19.046875 -21.390625 C 15.722656 -22.421875 13.007812 -23.445312 10.90625 -24.46875 C 8.8125 -25.5 7.003906 -27.015625 5.484375 -29.015625 C 3.972656 -31.023438 3.21875 -33.640625 3.21875 -36.859375 C 3.21875 -41.648438 4.953125 -45.398438 8.421875 -48.109375 C 11.890625 -50.816406 16.410156 -52.171875 21.984375 -52.171875 C 27.648438 -52.171875 32.21875 -50.816406 35.6875 -48.109375 C 39.15625 -45.398438 41.007812 -41.625 41.25 -36.78125 L 27.703125 -36.78125 C 27.597656 -38.445312 26.984375 -39.753906 25.859375 -40.703125 C 24.742188 -41.660156 23.304688 -42.140625 21.546875 -42.140625 C 20.023438 -42.140625 18.800781 -41.734375 17.875 -40.921875 C 16.945312 -40.117188 16.484375 -38.960938 16.484375 -37.453125 C 16.484375 -35.785156 17.265625 -34.488281 18.828125 -33.5625 C 20.390625 -32.632812 22.832031 -31.632812 26.15625 -30.5625 C 29.476562 -29.4375 32.175781 -28.359375 34.25 -27.328125 C 36.332031 -26.304688 38.128906 -24.816406 39.640625 -22.859375 C 41.160156 -20.910156 41.921875 -18.394531 41.921875 -15.3125 C 41.921875 -12.382812 41.175781 -9.722656 39.6875 -7.328125 C 38.195312 -4.929688 36.035156 -3.023438 33.203125 -1.609375 C 30.367188 -0.191406 27.019531 0.515625 23.15625 0.515625 Z M 23.15625 0.515625 "/>
      </g>
    </g>
  </g>
  <g clip-path="url(#31b1b21ccc)">
    <g clip-path="url(#e106cd66c3)">
      <g clip-path="url(#475d7f32c5)">
        <path fill="#ffbd59" d="M 288.242188 162.269531 C 288.242188 162.269531 291.824219 154.234375 297.398438 141.734375 C 296.316406 146.789062 295.234375 151.84375 294.15625 156.898438 C 296.191406 156.828125 298.222656 156.753906 300.257812 156.683594 C 295.464844 167.328125 291.089844 177.042969 291.089844 177.046875 C 291.089844 177.042969 294.425781 162.132812 294.425781 162.132812 C 294.425781 162.136719 288.242188 162.269531 288.242188 162.269531 Z M 288.242188 162.269531 " fill-opacity="1" fill-rule="nonzero"/>
      </g>
    </g>
  </g>
</svg>
